svg/OSM-icons/power #8e7489 °ffffff !label=enpower supply,deStromversorgung/26041;power=switch;!label=enpower switch,deStrom- Umschalter.svg

<svg xmlns="http://www.w3.org/2000/svg" viewBox="0 0 580 580" enable-background="new 0 0 580 580"><path fill="#111" stroke="#eee" stroke-width="3.408" d="m66.28 1.768c-41.34 0-64.57 21.371-64.57 65.04v450.12c0 40.844 20.895 62.23 62.19 62.23h452.02c41.31 0 62.23-20.315 62.23-62.23v-450.12c0-42.602-20.923-65.04-63.52-65.04-.003 0-448.5-.143-448.35 0z"/><path fill="#fff" d="m485.99 80.01h-391.98c-7.732 0-14 6.268-14 14v391.98c0 7.732 6.268 14 14 14h391.98c7.732 0 14-6.268 14-14v-391.98c0-7.732-6.268-14-14-14m-176.49 398.57h-38.998v-136.49h38.998v136.49m-19.499-227.99c-35.21 0-63.747-28.541-63.747-63.747s28.54-63.747 63.747-63.747c35.21 0 63.747 28.541 63.747 63.747s-28.541 63.747-63.747 63.747"/></svg>

<?xml version="1.0" encoding="utf-8"?>
<!-- Generator: Adobe Illustrator 15.0.0, SVG Export Plug-In . SVG Version: 6.00 Build 0)  -->
<!DOCTYPE svg PUBLIC "-//W3C//DTD SVG 1.1//EN" "http://www.w3.org/Graphics/SVG/1.1/DTD/svg11.dtd">
<svg version="1.1" xmlns="http://www.w3.org/2000/svg" xmlns:xlink="http://www.w3.org/1999/xlink" x="0px" y="0px" width="580px"
	 height="580px" viewBox="0 0 580 580" enable-background="new 0 0 580 580" xml:space="preserve">
<g id="Layer_1">
	<g id="Layer_2">
		<g id="g1327">
			<path id="path1329" fill="#111111" stroke="#EEEEEE" stroke-width="3.408" d="M66.275,1.768
				c-41.335,0-64.571,21.371-64.571,65.036v450.123c0,40.844,20.895,62.229,62.192,62.229h452.024
				c41.307,0,62.229-20.315,62.229-62.229V66.804c0-42.602-20.923-65.036-63.521-65.036C514.625,1.768,66.133,1.625,66.275,1.768z"
				/>
		</g>
	</g>
</g>
<g id="Layer_2_1_">
	<path fill="#FFFFFF" d="M485.99,80.01H94.01c-7.732,0-14,6.268-14,14v391.98c0,7.732,6.268,14,14,14h391.98c7.732,0,14-6.268,14-14
		V94.01C499.99,86.278,493.722,80.01,485.99,80.01z M309.499,478.582h-38.998V342.089h38.998V478.582z M290,250.594
		c-35.207,0-63.747-28.541-63.747-63.747S254.793,123.1,290,123.1c35.206,0,63.747,28.541,63.747,63.747
		S325.206,250.594,290,250.594z"/>
</g>
</svg>
